X: 14
T: No_110_A_Blue_Wind.krn
N: Derived from No_110_A_Blue_Wind.krn
%%abc-version 2.0
%%abcx-abcm2ps-target-version 5.9.1 (29 Sep 2008)
%%abc-creator hum2abc beta
%%abcx-conversion-date 2019/03/15 08:37:56
%%humdrum-veritas 789096771
%%humdrum-veritas-data 1020579614
%%linebreak <none>
%%barnumbers 0
L: 1/4
M: 2/4
K: D clef=bass
[K:clef=bass][M:2/4]D,2 ||  
[M:3/4]D,D,D | 
(D3 | 
B,)A,B, ||  
[M:2/4]A,2 | 
F,E, | 
D,2 ||  
[M:3/4]D,E,E, ||  
[M:2/4]E,2- | 
E,2 ||  
[M:3/4]E,zE, ||  
[M:2/4]E,2 | 
E,A, | 
A,3/G,/ ||  
[M:3/4]A,A,G,/E,/ ||  
[M:2/4]D,2 ||  
[M:3/4]D,E,E, ||  
[M:2/4]D,2- | 
D,3/E,/ | 
D,B,, | 
A,,2 | 
D,2 ||  
[M:3/4]D,2z ||  
[M:2/4]D,B,, | 
E,2 ||  
[M:3/4]C,E,E,/D,/ ||  
[M:2/4]E,2 | 
E,D, | 
B,,!fermata!F, | 
A,/A,/A, | 
A,2 | 
G,/E,/E, | 
D,2 ||  
[M:3/4]D,E,E, ||  
[M:2/4]D,2 | 
D,E, | 
D,B,, | 
A,,2 | 
D,2 | 
D,2 |]  



